images/50907412.svg

<?xml version="1.0" encoding="UTF-8"?>
<svg xmlns="http://www.w3.org/2000/svg" xmlns:xlink="http://www.w3.org/1999/xlink" width="300pt" height="300pt" viewBox="0 0 300 300" version="1.1">
<defs>
<g>
<symbol overflow="visible" id="glyph0-0">
<path style="stroke:none;" d="M 0.640625 2.296875 L 0.640625 -9.171875 L 7.140625 -9.171875 L 7.140625 2.296875 Z M 1.375 1.578125 L 6.421875 1.578125 L 6.421875 -8.4375 L 1.375 -8.4375 Z M 1.375 1.578125 "/>
</symbol>
<symbol overflow="visible" id="glyph0-1">
<path style="stroke:none;" d="M 5.125 -8.609375 C 4.1875 -8.609375 3.441406 -8.257812 2.890625 -7.5625 C 2.347656 -6.875 2.078125 -5.929688 2.078125 -4.734375 C 2.078125 -3.535156 2.347656 -2.585938 2.890625 -1.890625 C 3.441406 -1.203125 4.1875 -0.859375 5.125 -0.859375 C 6.050781 -0.859375 6.785156 -1.203125 7.328125 -1.890625 C 7.878906 -2.585938 8.15625 -3.535156 8.15625 -4.734375 C 8.15625 -5.929688 7.878906 -6.875 7.328125 -7.5625 C 6.785156 -8.257812 6.050781 -8.609375 5.125 -8.609375 Z M 5.125 -9.65625 C 6.445312 -9.65625 7.503906 -9.207031 8.296875 -8.3125 C 9.097656 -7.414062 9.5 -6.222656 9.5 -4.734375 C 9.5 -3.234375 9.097656 -2.035156 8.296875 -1.140625 C 7.503906 -0.253906 6.445312 0.1875 5.125 0.1875 C 3.789062 0.1875 2.722656 -0.253906 1.921875 -1.140625 C 1.128906 -2.035156 0.734375 -3.234375 0.734375 -4.734375 C 0.734375 -6.222656 1.128906 -7.414062 1.921875 -8.3125 C 2.722656 -9.207031 3.789062 -9.65625 5.125 -9.65625 Z M 5.125 -9.65625 "/>
</symbol>
<symbol overflow="visible" id="glyph0-2">
<path style="stroke:none;" d="M 1.28125 -9.484375 L 3 -9.484375 L 7.203125 -1.546875 L 7.203125 -9.484375 L 8.453125 -9.484375 L 8.453125 0 L 6.71875 0 L 2.515625 -7.921875 L 2.515625 0 L 1.28125 0 Z M 1.28125 -9.484375 "/>
</symbol>
<symbol overflow="visible" id="glyph0-3">
<path style="stroke:none;" d="M 1.28125 -9.484375 L 2.5625 -9.484375 L 2.5625 -5.59375 L 7.21875 -5.59375 L 7.21875 -9.484375 L 8.5 -9.484375 L 8.5 0 L 7.21875 0 L 7.21875 -4.515625 L 2.5625 -4.515625 L 2.5625 0 L 1.28125 0 Z M 1.28125 -9.484375 "/>
</symbol>
<symbol overflow="visible" id="glyph1-0">
<path style="stroke:none;" d="M 0.546875 1.9375 L 0.546875 -7.75 L 6.046875 -7.75 L 6.046875 1.9375 Z M 1.171875 1.328125 L 5.4375 1.328125 L 5.4375 -7.140625 L 1.171875 -7.140625 Z M 1.171875 1.328125 "/>
</symbol>
<symbol overflow="visible" id="glyph1-1">
<path style="stroke:none;" d="M 5.0625 -6.890625 L 5.0625 -3.90625 L 8.046875 -3.90625 L 8.046875 -2.984375 L 5.0625 -2.984375 L 5.0625 0 L 4.15625 0 L 4.15625 -2.984375 L 1.171875 -2.984375 L 1.171875 -3.90625 L 4.15625 -3.90625 L 4.15625 -6.890625 Z M 5.0625 -6.890625 "/>
</symbol>
<symbol overflow="visible" id="glyph1-2">
<path style="stroke:none;" d="M 0.53125 -3.453125 L 3.4375 -3.453125 L 3.4375 -2.578125 L 0.53125 -2.578125 Z M 0.53125 -3.453125 "/>
</symbol>
</g>
</defs>
<g id="surface12641">
<rect x="0" y="0" width="300" height="300" style="fill:rgb(100%,100%,100%);fill-opacity:1;stroke:none;"/>
<path style="fill:none;stroke-width:1.2;stroke-linecap:butt;stroke-linejoin:miter;stroke:rgb(100%,0%,0%);stroke-opacity:1;stroke-miterlimit:10;" d="M 204.273438 234.839844 L 202.078125 218.316406 "/>
<path style="fill:none;stroke-width:1.2;stroke-linecap:butt;stroke-linejoin:miter;stroke:rgb(0%,0%,0%);stroke-opacity:1;stroke-miterlimit:10;" d="M 202.078125 218.316406 L 199.886719 201.792969 "/>
<path style="fill:none;stroke-width:1.2;stroke-linecap:butt;stroke-linejoin:miter;stroke:rgb(0%,0%,0%);stroke-opacity:1;stroke-miterlimit:10;" d="M 174.203125 249.226562 L 189.238281 242.035156 "/>
<path style="fill:none;stroke-width:1.2;stroke-linecap:butt;stroke-linejoin:miter;stroke:rgb(100%,0%,0%);stroke-opacity:1;stroke-miterlimit:10;" d="M 189.238281 242.035156 L 204.273438 234.839844 "/>
<path style=" stroke:none;fill-rule:nonzero;fill:rgb(100%,100%,100%);fill-opacity:1;" d="M 199.273438 226.839844 L 210.273438 226.839844 L 210.273438 242.839844 L 199.273438 242.839844 Z M 199.273438 226.839844 "/>
<g style="fill:rgb(100%,0%,0%);fill-opacity:1;">
  <use xlink:href="#glyph0-1" x="199.273438" y="239.21582"/>
</g>
<path style="fill:none;stroke-width:1.2;stroke-linecap:butt;stroke-linejoin:miter;stroke:rgb(0%,0%,0%);stroke-opacity:1;stroke-miterlimit:10;" d="M 199.886719 201.792969 L 221.507812 176.421875 "/>
<path style="fill:none;stroke-width:1.2;stroke-linecap:butt;stroke-linejoin:miter;stroke:rgb(0%,0%,0%);stroke-opacity:1;stroke-miterlimit:10;" d="M 196.078125 194.167969 L 213.375 173.871094 "/>
<path style="fill:none;stroke-width:1.2;stroke-linecap:butt;stroke-linejoin:miter;stroke:rgb(0%,0%,0%);stroke-opacity:1;stroke-miterlimit:10;" d="M 167.097656 195.757812 L 199.886719 201.792969 "/>
<path style="fill:none;stroke-width:1.2;stroke-linecap:butt;stroke-linejoin:miter;stroke:rgb(0%,0%,0%);stroke-opacity:1;stroke-miterlimit:10;" d="M 221.507812 176.421875 L 210.34375 145.007812 "/>
<path style="fill:none;stroke-width:1.2;stroke-linecap:butt;stroke-linejoin:miter;stroke:rgb(0%,0%,0%);stroke-opacity:1;stroke-miterlimit:10;" d="M 210.34375 145.007812 L 177.558594 138.96875 "/>
<path style="fill:none;stroke-width:1.2;stroke-linecap:butt;stroke-linejoin:miter;stroke:rgb(0%,0%,0%);stroke-opacity:1;stroke-miterlimit:10;" d="M 205.644531 152.117188 L 179.414062 147.289062 "/>
<path style="fill:none;stroke-width:1.2;stroke-linecap:butt;stroke-linejoin:miter;stroke:rgb(0%,0%,0%);stroke-opacity:1;stroke-miterlimit:10;" d="M 210.34375 145.007812 L 231.964844 119.632812 "/>
<path style="fill:none;stroke-width:1.2;stroke-linecap:butt;stroke-linejoin:miter;stroke:rgb(0%,0%,0%);stroke-opacity:1;stroke-miterlimit:10;" d="M 177.558594 138.96875 L 155.933594 164.34375 "/>
<path style="fill:none;stroke-width:1.2;stroke-linecap:butt;stroke-linejoin:miter;stroke:rgb(0%,0%,0%);stroke-opacity:1;stroke-miterlimit:10;" d="M 166.394531 107.558594 L 177.558594 138.96875 "/>
<path style="fill:none;stroke-width:1.2;stroke-linecap:butt;stroke-linejoin:miter;stroke:rgb(0%,0%,0%);stroke-opacity:1;stroke-miterlimit:10;" d="M 155.933594 164.34375 L 123.148438 158.308594 "/>
<path style="fill:none;stroke-width:1.2;stroke-linecap:butt;stroke-linejoin:miter;stroke:rgb(0%,0%,0%);stroke-opacity:1;stroke-miterlimit:10;" d="M 155.933594 164.34375 L 167.097656 195.757812 "/>
<path style="fill:none;stroke-width:1.2;stroke-linecap:butt;stroke-linejoin:miter;stroke:rgb(0%,0%,0%);stroke-opacity:1;stroke-miterlimit:10;" d="M 164.441406 164.859375 L 173.375 189.988281 "/>
<path style="fill:none;stroke-width:1.2;stroke-linecap:butt;stroke-linejoin:miter;stroke:rgb(0%,0%,0%);stroke-opacity:1;stroke-miterlimit:10;" d="M 123.148438 158.308594 L 111.984375 126.894531 "/>
<path style="fill:none;stroke-width:1.2;stroke-linecap:butt;stroke-linejoin:miter;stroke:rgb(0%,0%,0%);stroke-opacity:1;stroke-miterlimit:10;" d="M 114.640625 157.792969 L 105.710938 132.664062 "/>
<path style="fill:none;stroke-width:1.2;stroke-linecap:butt;stroke-linejoin:miter;stroke:rgb(0%,0%,0%);stroke-opacity:1;stroke-miterlimit:10;" d="M 101.527344 183.683594 L 123.148438 158.308594 "/>
<path style="fill:none;stroke-width:1.2;stroke-linecap:butt;stroke-linejoin:miter;stroke:rgb(0%,0%,0%);stroke-opacity:1;stroke-miterlimit:10;" d="M 111.984375 126.894531 L 133.605469 101.519531 "/>
<path style="fill:none;stroke-width:1.2;stroke-linecap:butt;stroke-linejoin:miter;stroke:rgb(0%,0%,0%);stroke-opacity:1;stroke-miterlimit:10;" d="M 111.984375 126.894531 L 79.199219 120.859375 "/>
<path style="fill:none;stroke-width:1.2;stroke-linecap:butt;stroke-linejoin:miter;stroke:rgb(0%,0%,0%);stroke-opacity:1;stroke-miterlimit:10;" d="M 133.605469 101.519531 L 166.394531 107.558594 "/>
<path style="fill:none;stroke-width:1.2;stroke-linecap:butt;stroke-linejoin:miter;stroke:rgb(0%,0%,0%);stroke-opacity:1;stroke-miterlimit:10;" d="M 135.464844 109.839844 L 161.695312 114.667969 "/>
<path style="fill:none;stroke-width:1.2;stroke-linecap:butt;stroke-linejoin:miter;stroke:rgb(0%,0%,0%);stroke-opacity:1;stroke-miterlimit:10;" d="M 166.394531 107.558594 L 177.203125 94.871094 "/>
<path style="fill:none;stroke-width:1.2;stroke-linecap:butt;stroke-linejoin:miter;stroke:rgb(0%,0%,100%);stroke-opacity:1;stroke-miterlimit:10;" d="M 177.203125 94.871094 L 188.015625 82.183594 "/>
<path style="fill:none;stroke-width:1.2;stroke-linecap:butt;stroke-linejoin:miter;stroke:rgb(0%,0%,100%);stroke-opacity:1;stroke-miterlimit:10;" d="M 187.78125 86.097656 L 198.695312 86.753906 "/>
<path style="fill:none;stroke-width:1.2;stroke-linecap:butt;stroke-linejoin:miter;stroke:rgb(100%,0%,0%);stroke-opacity:1;stroke-miterlimit:10;" d="M 198.695312 86.753906 L 209.613281 87.410156 "/>
<path style="fill:none;stroke-width:1.2;stroke-linecap:butt;stroke-linejoin:miter;stroke:rgb(0%,0%,100%);stroke-opacity:1;stroke-miterlimit:10;" d="M 188.25 78.269531 L 199.164062 78.925781 "/>
<path style="fill:none;stroke-width:1.2;stroke-linecap:butt;stroke-linejoin:miter;stroke:rgb(100%,0%,0%);stroke-opacity:1;stroke-miterlimit:10;" d="M 199.164062 78.925781 L 210.082031 79.578125 "/>
<path style="fill:none;stroke-width:1.2;stroke-linecap:butt;stroke-linejoin:miter;stroke:rgb(0%,0%,100%);stroke-opacity:1;stroke-miterlimit:10;" d="M 188.015625 82.183594 L 182.433594 66.476562 "/>
<path style="fill:none;stroke-width:1.2;stroke-linecap:butt;stroke-linejoin:miter;stroke:rgb(100%,0%,0%);stroke-opacity:1;stroke-miterlimit:10;" d="M 182.433594 66.476562 L 176.851562 50.773438 "/>
<path style=" stroke:none;fill-rule:nonzero;fill:rgb(100%,100%,100%);fill-opacity:1;" d="M 178.015625 72.683594 L 198.015625 72.683594 L 198.015625 91.683594 L 178.015625 91.683594 Z M 178.015625 72.683594 "/>
<g style="fill:rgb(0%,0%,100%);fill-opacity:1;">
  <use xlink:href="#glyph0-2" x="178.015625" y="87.878906"/>
</g>
<g style="fill:rgb(0%,0%,100%);fill-opacity:1;">
  <use xlink:href="#glyph1-1" x="187.985352" y="82.996094"/>
</g>
<path style=" stroke:none;fill-rule:nonzero;fill:rgb(100%,100%,100%);fill-opacity:1;" d="M 204.847656 75.492188 L 215.847656 75.492188 L 215.847656 91.492188 L 204.847656 91.492188 Z M 204.847656 75.492188 "/>
<g style="fill:rgb(100%,0%,0%);fill-opacity:1;">
  <use xlink:href="#glyph0-1" x="204.847656" y="87.868164"/>
</g>
<path style=" stroke:none;fill-rule:nonzero;fill:rgb(100%,100%,100%);fill-opacity:1;" d="M 161.851562 41.273438 L 176.851562 41.273438 L 176.851562 60.273438 L 161.851562 60.273438 Z M 161.851562 41.273438 "/>
<g style="fill:rgb(100%,0%,0%);fill-opacity:1;">
  <use xlink:href="#glyph1-2" x="161.851562" y="51.585938"/>
</g>
<g style="fill:rgb(100%,0%,0%);fill-opacity:1;">
  <use xlink:href="#glyph0-1" x="165.860352" y="56.46875"/>
</g>
<path style="fill:none;stroke-width:1.2;stroke-linecap:butt;stroke-linejoin:miter;stroke:rgb(0%,0%,0%);stroke-opacity:1;stroke-miterlimit:10;" d="M 79.199219 120.859375 L 73.617188 105.152344 "/>
<path style="fill:none;stroke-width:1.2;stroke-linecap:butt;stroke-linejoin:miter;stroke:rgb(100%,0%,0%);stroke-opacity:1;stroke-miterlimit:10;" d="M 73.617188 105.152344 L 68.035156 89.445312 "/>
<path style="fill:none;stroke-width:1.2;stroke-linecap:butt;stroke-linejoin:miter;stroke:rgb(0%,0%,0%);stroke-opacity:1;stroke-miterlimit:10;" d="M 79.199219 120.859375 L 57.578125 146.230469 "/>
<path style="fill:none;stroke-width:1.2;stroke-linecap:butt;stroke-linejoin:miter;stroke:rgb(0%,0%,0%);stroke-opacity:1;stroke-miterlimit:10;" d="M 83.007812 128.484375 L 65.710938 148.78125 "/>
<path style="fill:none;stroke-width:1.2;stroke-linecap:butt;stroke-linejoin:miter;stroke:rgb(100%,0%,0%);stroke-opacity:1;stroke-miterlimit:10;" d="M 68.035156 89.445312 L 51.644531 86.425781 "/>
<path style="fill:none;stroke-width:1.2;stroke-linecap:butt;stroke-linejoin:miter;stroke:rgb(0%,0%,0%);stroke-opacity:1;stroke-miterlimit:10;" d="M 51.644531 86.425781 L 35.25 83.40625 "/>
<path style=" stroke:none;fill-rule:nonzero;fill:rgb(100%,100%,100%);fill-opacity:1;" d="M 63.035156 81.445312 L 74.035156 81.445312 L 74.035156 97.445312 L 63.035156 97.445312 Z M 63.035156 81.445312 "/>
<g style="fill:rgb(100%,0%,0%);fill-opacity:1;">
  <use xlink:href="#glyph0-1" x="63.035156" y="93.821289"/>
</g>
<path style="fill:none;stroke-width:1.2;stroke-linecap:butt;stroke-linejoin:miter;stroke:rgb(0%,0%,0%);stroke-opacity:1;stroke-miterlimit:10;" d="M 57.578125 146.230469 L 68.742188 177.644531 "/>
<path style="fill:none;stroke-width:1.2;stroke-linecap:butt;stroke-linejoin:miter;stroke:rgb(0%,0%,0%);stroke-opacity:1;stroke-miterlimit:10;" d="M 68.742188 177.644531 L 57.929688 190.332031 "/>
<path style="fill:none;stroke-width:1.2;stroke-linecap:butt;stroke-linejoin:miter;stroke:rgb(100%,0%,0%);stroke-opacity:1;stroke-miterlimit:10;" d="M 57.929688 190.332031 L 47.121094 203.019531 "/>
<path style="fill:none;stroke-width:1.2;stroke-linecap:butt;stroke-linejoin:miter;stroke:rgb(0%,0%,0%);stroke-opacity:1;stroke-miterlimit:10;" d="M 68.742188 177.644531 L 101.527344 183.683594 "/>
<path style="fill:none;stroke-width:1.2;stroke-linecap:butt;stroke-linejoin:miter;stroke:rgb(0%,0%,0%);stroke-opacity:1;stroke-miterlimit:10;" d="M 73.441406 170.535156 L 99.671875 175.363281 "/>
<path style=" stroke:none;fill-rule:nonzero;fill:rgb(100%,100%,100%);fill-opacity:1;" d="M 26.121094 195.019531 L 47.121094 195.019531 L 47.121094 211.019531 L 26.121094 211.019531 Z M 26.121094 195.019531 "/>
<g style="fill:rgb(100%,0%,0%);fill-opacity:1;">
  <use xlink:href="#glyph0-3" x="26.121094" y="207.395508"/>
  <use xlink:href="#glyph0-1" x="36.143555" y="207.395508"/>
</g>
<path style="fill:none;stroke-width:1.2;stroke-linecap:butt;stroke-linejoin:miter;stroke:rgb(0%,0%,0%);stroke-opacity:1;stroke-miterlimit:10;" d="M 167.097656 195.757812 L 159.164062 210.414062 "/>
<path style="fill:none;stroke-width:1.2;stroke-linecap:butt;stroke-linejoin:miter;stroke:rgb(100%,0%,0%);stroke-opacity:1;stroke-miterlimit:10;" d="M 159.164062 210.414062 L 151.226562 225.074219 "/>
<path style="fill:none;stroke-width:1.2;stroke-linecap:butt;stroke-linejoin:miter;stroke:rgb(100%,0%,0%);stroke-opacity:1;stroke-miterlimit:10;" d="M 151.226562 225.074219 L 162.714844 237.148438 "/>
<path style="fill:none;stroke-width:1.2;stroke-linecap:butt;stroke-linejoin:miter;stroke:rgb(0%,0%,0%);stroke-opacity:1;stroke-miterlimit:10;" d="M 162.714844 237.148438 L 174.203125 249.226562 "/>
<path style=" stroke:none;fill-rule:nonzero;fill:rgb(100%,100%,100%);fill-opacity:1;" d="M 146.226562 217.074219 L 157.226562 217.074219 L 157.226562 233.074219 L 146.226562 233.074219 Z M 146.226562 217.074219 "/>
<g style="fill:rgb(100%,0%,0%);fill-opacity:1;">
  <use xlink:href="#glyph0-1" x="146.226562" y="229.450195"/>
</g>
<path style="fill:none;stroke-width:1.2;stroke-linecap:butt;stroke-linejoin:miter;stroke:rgb(0%,0%,0%);stroke-opacity:1;stroke-miterlimit:10;" d="M 231.253906 123.492188 L 247.648438 126.511719 "/>
<path style="fill:none;stroke-width:1.2;stroke-linecap:butt;stroke-linejoin:miter;stroke:rgb(100%,0%,0%);stroke-opacity:1;stroke-miterlimit:10;" d="M 247.648438 126.511719 L 264.039062 129.527344 "/>
<path style="fill:none;stroke-width:1.2;stroke-linecap:butt;stroke-linejoin:miter;stroke:rgb(0%,0%,0%);stroke-opacity:1;stroke-miterlimit:10;" d="M 232.675781 115.777344 L 249.066406 118.796875 "/>
<path style="fill:none;stroke-width:1.2;stroke-linecap:butt;stroke-linejoin:miter;stroke:rgb(100%,0%,0%);stroke-opacity:1;stroke-miterlimit:10;" d="M 249.066406 118.796875 L 265.460938 121.8125 "/>
<path style="fill:none;stroke-width:1.2;stroke-linecap:butt;stroke-linejoin:miter;stroke:rgb(0%,0%,0%);stroke-opacity:1;stroke-miterlimit:10;" d="M 231.964844 119.632812 L 229.585938 108.960938 "/>
<path style="fill:none;stroke-width:1.2;stroke-linecap:butt;stroke-linejoin:miter;stroke:rgb(100%,0%,0%);stroke-opacity:1;stroke-miterlimit:10;" d="M 229.585938 108.960938 L 227.207031 98.285156 "/>
<path style=" stroke:none;fill-rule:nonzero;fill:rgb(100%,100%,100%);fill-opacity:1;" d="M 259.75 117.671875 L 270.75 117.671875 L 270.75 133.671875 L 259.75 133.671875 Z M 259.75 117.671875 "/>
<g style="fill:rgb(100%,0%,0%);fill-opacity:1;">
  <use xlink:href="#glyph0-1" x="259.75" y="130.047852"/>
</g>
<path style=" stroke:none;fill-rule:nonzero;fill:rgb(100%,100%,100%);fill-opacity:1;" d="M 220.207031 88.785156 L 235.207031 88.785156 L 235.207031 107.785156 L 220.207031 107.785156 Z M 220.207031 88.785156 "/>
<g style="fill:rgb(100%,0%,0%);fill-opacity:1;">
  <use xlink:href="#glyph1-2" x="220.207031" y="99.097656"/>
</g>
<g style="fill:rgb(100%,0%,0%);fill-opacity:1;">
  <use xlink:href="#glyph0-1" x="224.21582" y="103.980469"/>
</g>
</g>
</svg>

<svg xmlns="http://www.w3.org/2000/svg" xmlns:xlink="http://www.w3.org/1999/xlink" width="300pt" height="300pt" viewBox="0 0 300 300"><defs><symbol overflow="visible"><path d="M.64 2.297v-11.47h6.5v11.47zm.735-.72h5.047V-8.436H1.375zm0 0"/></symbol><symbol overflow="visible" id="a"><path d="M5.125-8.61c-.938 0-1.684.352-2.234 1.047-.542.688-.812 1.633-.812 2.83 0 1.198.27 2.147.813 2.842.55.687 1.297 1.03 2.235 1.03.926 0 1.66-.343 2.203-1.03.55-.696.828-1.645.828-2.844 0-1.196-.277-2.14-.828-2.829-.543-.695-1.277-1.046-2.203-1.046zm0-1.046c1.32 0 2.38.45 3.172 1.344.8.898 1.203 2.09 1.203 3.578 0 1.5-.402 2.7-1.203 3.593C7.504-.255 6.445.186 5.125.186c-1.336 0-2.402-.44-3.203-1.328C1.13-2.036.734-3.235.734-4.735c0-1.49.395-2.68 1.188-3.579.8-.894 1.867-1.343 3.203-1.343zm0 0"/></symbol><symbol overflow="visible" id="b"><path d="M1.28-9.484H3l4.203 7.937v-7.937h1.25V0H6.72L2.515-7.922V0H1.28zm0 0"/></symbol><symbol overflow="visible" id="e"><path d="M1.28-9.484h1.282v3.89H7.22v-3.89H8.5V0H7.22v-4.516H2.562V0H1.28zm0 0"/></symbol><symbol overflow="visible"><path d="M.547 1.938V-7.75h5.5v9.688zm.625-.61h4.266v-8.47H1.171zm0 0"/></symbol><symbol overflow="visible" id="c"><path d="M5.063-6.89v2.984h2.984v.922H5.062V0h-.906v-2.984H1.172v-.922h2.984V-6.89zm0 0"/></symbol><symbol overflow="visible" id="d"><path d="M.53-3.453h2.907v.875H.53zm0 0"/></symbol></defs><g><path fill="#fff" d="M0 0h300v300H0z"/><path d="M204.273 234.84l-2.195-16.524" stroke-width="1.2" stroke="#f00" stroke-miterlimit="10" fill="none"/><path d="M202.078 218.316l-2.19-16.523M174.203 249.227l15.035-7.192" stroke-width="1.2" stroke="#000" stroke-miterlimit="10" fill="none"/><path d="M189.238 242.035l15.035-7.195" stroke-width="1.2" stroke="#f00" stroke-miterlimit="10" fill="none"/><path d="M199.273 226.84h11v16h-11zm0 0" fill="#fff"/><use xlink:href="#a" x="199.273" y="239.216" fill="#f00"/><path d="M199.887 201.793l21.62-25.37M196.078 194.168l17.297-20.297M167.098 195.758l32.79 6.035M221.508 176.422l-11.164-31.414M210.344 145.008l-32.785-6.04M205.645 152.117l-26.23-4.828M210.344 145.008l21.62-25.375M177.56 138.97l-21.626 25.374M166.395 107.56l11.164 31.41M155.934 164.344l-32.786-6.035M155.934 164.344l11.164 31.414M164.44 164.86l8.935 25.128M123.148 158.31l-11.164-31.415M114.64 157.793l-8.93-25.13M101.527 183.684l21.62-25.375M111.984 126.895l21.62-25.375M111.984 126.895L79.2 120.86M133.605 101.52l32.79 6.04M135.465 109.84l26.23 4.828M166.395 107.56l10.808-12.69" stroke-width="1.2" stroke="#000" stroke-miterlimit="10" fill="none"/><path d="M177.203 94.87l10.813-12.686M187.78 86.098l10.915.656" stroke-width="1.2" stroke="#00f" stroke-miterlimit="10" fill="none"/><path d="M198.695 86.754l10.918.656" stroke-width="1.2" stroke="#f00" stroke-miterlimit="10" fill="none"/><path d="M188.25 78.27l10.914.656" stroke-width="1.2" stroke="#00f" stroke-miterlimit="10" fill="none"/><path d="M199.164 78.926l10.918.652" stroke-width="1.2" stroke="#f00" stroke-miterlimit="10" fill="none"/><path d="M188.016 82.184l-5.582-15.707" stroke-width="1.2" stroke="#00f" stroke-miterlimit="10" fill="none"/><path d="M182.434 66.477l-5.582-15.704" stroke-width="1.2" stroke="#f00" stroke-miterlimit="10" fill="none"/><path d="M178.016 72.684h20v19h-20zm0 0" fill="#fff"/><use xlink:href="#b" x="178.016" y="87.879" fill="#00f"/><use xlink:href="#c" x="187.985" y="82.996" fill="#00f"/><path d="M204.848 75.492h11v16h-11zm0 0" fill="#fff"/><use xlink:href="#a" x="204.848" y="87.868" fill="#f00"/><path d="M161.852 41.273h15v19h-15zm0 0" fill="#fff"/><use xlink:href="#d" x="161.852" y="51.586" fill="#f00"/><use xlink:href="#a" x="165.86" y="56.469" fill="#f00"/><path d="M79.2 120.86l-5.583-15.708" stroke-width="1.2" stroke="#000" stroke-miterlimit="10" fill="none"/><path d="M73.617 105.152l-5.582-15.707" stroke-width="1.2" stroke="#f00" stroke-miterlimit="10" fill="none"/><path d="M79.2 120.86l-21.622 25.37M83.008 128.484L65.71 148.78" stroke-width="1.2" stroke="#000" stroke-miterlimit="10" fill="none"/><path d="M68.035 89.445l-16.39-3.02" stroke-width="1.2" stroke="#f00" stroke-miterlimit="10" fill="none"/><path d="M51.645 86.426l-16.395-3.02" stroke-width="1.2" stroke="#000" stroke-miterlimit="10" fill="none"/><path d="M63.035 81.445h11v16h-11zm0 0" fill="#fff"/><use xlink:href="#a" x="63.035" y="93.821" fill="#f00"/><path d="M57.578 146.23l11.164 31.415M68.742 177.645L57.93 190.332" stroke-width="1.2" stroke="#000" stroke-miterlimit="10" fill="none"/><path d="M57.93 190.332L47.12 203.02" stroke-width="1.2" stroke="#f00" stroke-miterlimit="10" fill="none"/><path d="M68.742 177.645l32.785 6.04M73.44 170.535l26.232 4.828" stroke-width="1.2" stroke="#000" stroke-miterlimit="10" fill="none"/><path d="M26.12 195.02h21v16h-21zm0 0" fill="#fff"/><g fill="#f00"><use xlink:href="#e" x="26.121" y="207.396"/><use xlink:href="#a" x="36.144" y="207.396"/></g><path d="M167.098 195.758l-7.934 14.656" stroke-width="1.2" stroke="#000" stroke-miterlimit="10" fill="none"/><path d="M159.164 210.414l-7.937 14.66M151.227 225.074l11.488 12.074" stroke-width="1.2" stroke="#f00" stroke-miterlimit="10" fill="none"/><path d="M162.715 237.148l11.488 12.08" stroke-width="1.2" stroke="#000" stroke-miterlimit="10" fill="none"/><path d="M146.227 217.074h11v16h-11zm0 0" fill="#fff"/><use xlink:href="#a" x="146.227" y="229.45" fill="#f00"/><path d="M231.254 123.492l16.394 3.02" stroke-width="1.2" stroke="#000" stroke-miterlimit="10" fill="none"/><path d="M247.648 126.512l16.39 3.015" stroke-width="1.2" stroke="#f00" stroke-miterlimit="10" fill="none"/><path d="M232.676 115.777l16.39 3.02" stroke-width="1.2" stroke="#000" stroke-miterlimit="10" fill="none"/><path d="M249.066 118.797l16.395 3.016" stroke-width="1.2" stroke="#f00" stroke-miterlimit="10" fill="none"/><path d="M231.965 119.633l-2.38-10.672" stroke-width="1.2" stroke="#000" stroke-miterlimit="10" fill="none"/><path d="M229.586 108.96l-2.38-10.675" stroke-width="1.2" stroke="#f00" stroke-miterlimit="10" fill="none"/><path d="M259.75 117.672h11v16h-11zm0 0" fill="#fff"/><use xlink:href="#a" x="259.75" y="130.048" fill="#f00"/><path d="M220.207 88.785h15v19h-15zm0 0" fill="#fff"/><use xlink:href="#d" x="220.207" y="99.098" fill="#f00"/><use xlink:href="#a" x="224.216" y="103.98" fill="#f00"/></g></svg>
